!!!OTL: 65. Gas-nign
!!!Genre:	Gas-nign
!!!Mode:	Freygish
!!!Listening/dance:	listening
!!!:	*F:
!!!One_Mode:	no
**kern
*thru
*I"P1
*clefG2
*k[b-e-a-]
*F:
=17||
*>B
*k[b-]
*F:
!LO:TX:a:i:t=F-major
(8qc/
4f)
4a
4cc
=18
(8ccL
8b-J)
16b-LL
16cc
16b-
16aJJ
(16aKL
8.ccJ)
=19
(8ccL
8b-J)
(16b-LL
16cc
16b-
16aJJ)
(16aLL
16b-
16a
16gJJ)
=20
(8gL
8fJ)
(8fL
8cJ)
4cc
=21
8f
8r
8.aL
16aJk
4cc
=22
(8.ccL
16b-Jk)
(8qcc/
8b-L)
8aJ
(8qa/
8ccL)
8ddJ
!!!End-Modulation
*F:
!LO:TX:a:i:t=F-major
=25
(8qc/
8f)
8r
4an
4cc
=26
(16ccKL
8.b-J)
(16b-KL
8.aJ)
(16aKL
8.ccJ)
=27
(16ccKL
8.b-J)
(16b-KL
8.aJ)
(16aKL
8.ddJ)
=28
(16qqa/LL
16qqb-/JJ
2a)
(16qqg/LL
16qqa/JJ
8gL)
8fJ
=29
4f
4r
(8aL
8ccJ)
=30
(16ccKL
8.b-'J)
(16b-KL
8.aJ)
(16ee-XLL
16ddJ
8ccJ)
!!!End-Modulation
*-
